X:20003
T:Tarbolton, The
R:Reel
C:Trad.
O:Ireland after Scotland
Z:Paul Hardy's Session Tunebook 2022 (see www.paulhardy.net). Creative Commons cc by-nc-sa licenced.
M:4/4
L:1/8
Q:1/4=120
K:Em
"Em"Beed e2BA|GBAF GFEF|"D"Ddd^c d2AG|"D"(3FED AG FDD2|
"Em"Beed efge|"Bm"fedf edBA|"Em"GBAG "D"FGAc|"Em"BG "D"AF "Em"GEE2:|
|:"Em"gfef (3gfe be|gebe gfef|"D"(3ddd fd adfd|ABAG FDDF|
"Em"GEE2 "D"FEDF|"Em"E2ef gfed|"Bm"B3c BAGA|BG "D"AF "Em"GEE2:|

